libs/icons/src/svg/location.svg

<svg width="16" height="16" viewBox="0 0 16 16" fill="none" xmlns="http://www.w3.org/2000/svg">
<path fill-rule="evenodd" clip-rule="evenodd" d="M3.33333 6C3.33333 3.03198 5.70098 1.33333 8 1.33333C10.299 1.33333 12.6667 3.03198 12.6667 6C12.6667 6.65655 12.3915 7.49202 11.908 8.42575C11.432 9.34501 10.7897 10.2927 10.1355 11.1555C9.48297 12.016 8.82887 12.7786 8.33711 13.3267C8.21337 13.4646 8.10012 13.5887 8 13.6971C7.89988 13.5887 7.78663 13.4646 7.66289 13.3267C7.17113 12.7786 6.51703 12.016 5.86454 11.1555C5.2103 10.2927 4.568 9.34501 4.09201 8.42575C3.60852 7.49202 3.33333 6.65655 3.33333 6ZM7.52548 15.1349C7.52559 15.135 7.52568 15.1351 8 14.6667L8.47432 15.1351C8.34907 15.262 8.17825 15.3333 8 15.3333C7.82175 15.3333 7.65073 15.2618 7.52548 15.1349ZM7.52548 15.1349L8 14.6667C8.47432 15.1351 8.47473 15.1347 8.47484 15.1346L8.47931 15.1301L8.49189 15.1172L8.53887 15.0689C8.57956 15.0269 8.63857 14.9655 8.71329 14.8866C8.86268 14.7288 9.0751 14.5007 9.32955 14.2171C9.8378 13.6506 10.517 12.859 11.1979 11.9611C11.877 11.0656 12.568 10.0508 13.092 9.03883C13.6085 8.04132 14 6.97679 14 6C14 2.16802 10.901 0 8 0C5.09902 0 2 2.16802 2 6C2 6.97679 2.39148 8.04132 2.90799 9.03883C3.432 10.0508 4.12303 11.0656 4.80212 11.9611C5.48297 12.859 6.1622 13.6506 6.67045 14.2171C6.9249 14.5007 7.13732 14.7288 7.28671 14.8866C7.36143 14.9655 7.42044 15.0269 7.46113 15.0689L7.50811 15.1172L7.52069 15.1301L7.52548 15.1349ZM6.66667 5.99999C6.66667 5.26361 7.26362 4.66666 8 4.66666C8.73638 4.66666 9.33333 5.26361 9.33333 5.99999C9.33333 6.73637 8.73638 7.33333 8 7.33333C7.26362 7.33333 6.66667 6.73637 6.66667 5.99999ZM8 3.33333C6.52724 3.33333 5.33333 4.52723 5.33333 5.99999C5.33333 7.47275 6.52724 8.66666 8 8.66666C9.47276 8.66666 10.6667 7.47275 10.6667 5.99999C10.6667 4.52723 9.47276 3.33333 8 3.33333Z" fill="#202327"/>
</svg>

<svg xmlns="http://www.w3.org/2000/svg" viewBox="0 0 16 16" class="sageicon"><path fill-rule="evenodd" d="M3.333 6c0-2.968 2.368-4.667 4.667-4.667S12.667 3.032 12.667 6c0 .657-.275 1.492-.759 2.426-.476.919-1.118 1.867-1.772 2.73A34.83 34.83 0 0 1 8 13.697a34.818 34.818 0 0 1-2.135-2.542c-.655-.862-1.297-1.81-1.773-2.73-.483-.933-.759-1.768-.759-2.425Zm4.192 9.135L8 14.667l.474.468a.666.666 0 0 1-.949 0Zm0 0L8 14.667l.475.468.004-.005.013-.013.047-.048.174-.182a36.173 36.173 0 0 0 2.485-2.925c.679-.896 1.37-1.911 1.894-2.923C13.608 8.04 14 6.977 14 6c0-3.832-3.099-6-6-6S2 2.168 2 6c0 .977.391 2.041.908 3.039.524 1.012 1.215 2.027 1.894 2.922a36.156 36.156 0 0 0 2.66 3.108l.046.048.013.013.004.005ZM6.667 6a1.333 1.333 0 1 1 2.666 0 1.333 1.333 0 0 1-2.666 0ZM8 3.333a2.667 2.667 0 1 0 0 5.334 2.667 2.667 0 0 0 0-5.334Z"/></svg>
